client/src/assets/generatedImages/sprite/CALL.svg

<svg viewBox="0 0 24 24"><path fill-rule="evenodd" clip-rule="evenodd" d="M11 5V3C16.515 3 21 7.486 21 13H19C19 8.589 15.411 5 11 5ZM17 13H15C15 10.795 13.206 9 11 9V7C14.309 7 17 9.691 17 13ZM11 11V13H13C13 11.896 12.105 11 11 11ZM14 16H18C18.553 16 19 16.447 19 17V21C19 21.553 18.553 22 18 22H13C6.925 22 2 17.075 2 11V6C2 5.447 2.448 5 3 5H7C7.553 5 8 5.447 8 6V10C8 10.553 7.553 11 7 11H6C6.063 14.938 9 18 13 18V17C13 16.447 13.447 16 14 16Z"/></svg>

<svg viewBox="0 0 24 24"><path fill-rule="evenodd" d="M11 5V3a10 10 0 0 1 10 10h-2a8 8 0 0 0-8-8Zm6 8h-2a4 4 0 0 0-4-4V7a6 6 0 0 1 6 6Zm-6-2v2h2a2 2 0 0 0-2-2Zm3 5h4c.6 0 1 .4 1 1v4c0 .6-.4 1-1 1h-5C7 22 2 17 2 11V6c0-.6.4-1 1-1h4c.6 0 1 .4 1 1v4c0 .6-.4 1-1 1H6c0 4 3 7 7 7v-1c0-.6.4-1 1-1Z" clip-rule="evenodd"/></svg>
